!!!COA:	de Orto, Marbrianus
!!!CDT:	~1460///-1529//
!!!OTL:	Salve regis mater sanctissima / Hic est sacerdos
!!!AGN:	Motet
!!!SCT:	Ort2008
!!!SCA:	Ort2008
!!!voices:	5
**kern	**kern	**kern	**kern	**kern
*staff5	*staff4	*staff3	*staff2	*staff1
*Ivox	*Ivox	*Ivox	*Ivox	*Ivox
*I"Bassus	*I"Tenor2	*I"Tenor	*I"Contra	*I"Superius
*I'B	*I'T2	*I'T	*I'C	*I'S
*>[A,B]	*>[A,B]	*>[A,B]	*>[A,B]	*>[A,B]
*>A	*>A	*>A	*>A	*>A
*clefF4	*clefF4	*clefF4	*clefGv2	*clefG2
*k[b-]	*k[]	*k[b-]	*k[]	*k[]
*M3/1	*M3/1	*M3/1	*M3/1	*M3/1
*met(O)	*met(O)	*met(O)	*met(O)	*met(O)
!!section: Salve regis mater sanctissima/Hic est sacerdos
!!!OMD: Salve regis mater sanctissima/Hic est sacerdos
=1-	=1-	=1-	=1-	=1-
0DD	0.r	0.r	1.D	0.r
.	.	.	4C/	.
.	.	.	4BB/	.
1EE	.	.	2D/	.
.	.	.	2C/	.
=2	=2	=2	=2	=2
1DD	0.r	0.r	2D/	1.d
.	.	.	1F	.
1r	.	.	.	.
.	.	.	4E/	4c/
.	.	.	4D/	4B/
2GG/	.	.	1E	2d/
2AA/	.	.	.	2c/
=3	=3	=3	=3	=3
1BB-	2.D\	0.r	1D	1d
.	8C/L	.	.	.
.	8BB/J	.	.	.
2r	2D\	.	0A	0f
1FF	2C/	.	.	.
.	2D\	.	.	.
2DD/	[2F\	.	.	.
=4	=4	=4	=4	=4
1CC	2F\]	0.r	2r	1g
.	2E\	.	1c	.
1r	1F	.	.	1a
.	.	.	2c\	.
1r	2r	.	1B-i	2g/
.	2BB-/	.	.	[2f/
=5	=5	=5	=5	=5
1r	1C	0.r	1G	2f/]
.	.	.	.	2e/
2DD/	2D\	.	2F/	2f/
4EE/	2GG/	.	2E/	2.g/
4FF/	.	.	.	.
4GG/	2r	.	2.D/	.
4AA/	.	.	.	8f/L
.	.	.	.	8e/J
2BB-/	2G\	.	.	2d/
.	.	.	4BB-i/	.
=6	=6	=6	=6	=6
2AA/	1A	0.r	1C	2e/
2FF/	.	.	.	1f
1BB-	2F\	.	1D	.
.	2G\	.	.	1d
1AA	1E	.	1A	.
.	.	.	.	2c#i/
=7	=7	=7	=7	=7
2r	2D\	[0.GG	1B-i	1d
2GG/	2G\	.	.	.
2FF/	2A\	.	2A/	1r
2GG/	2D\	.	2G/	.
2.DD/	2r	.	2F/	1r
.	[2AA/	.	2D/	.
4EE/	.	.	.	.
=8	=8	=8	=8	=8
2FF/	2AA/]	1GG]	2A/	0.r
2GG/	2BB/	.	2G/	.
2AA/	2C/	0FF	2E/	.
4GG/	2AA/	.	2A/	.
4FF/	.	.	.	.
1EE	1r	.	1G	.
=9	=9	=9	=9	=9
1DD	2AA/	0.GG	1F	1A
.	2.D\	.	.	.
2GG/	.	.	2G/	2B/
.	4E\	.	.	.
2FF/	2F\	.	2A/	2A/
1GG	2D\	.	2B-i\	2.d/
.	2r	.	2G/	.
.	.	.	.	4e/
=10	=10	=10	=10	=10
2FF/	2AA/	[0.GG	1.A	1f
2DD/	2D\	.	.	.
2FF/	2AA/	.	.	2r
2GG/	2BB/	.	2G/	2d/
1DD	2AA/	.	1A	2.f/
.	4D\	.	.	.
.	4C/	.	.	4e/
=11	=11	=11	=11	=11
1GG	4BB/	0.GG_	2r	4d/
.	4AA/	.	.	4c/
.	2GG/	.	2D/	2B/
2FF/	2D\	.	2F/	2A/
2GG/	2BB/	.	2D/	2G/
1DD	1AA	.	2r	2A/
.	.	.	2A/	[2F/
=12	=12	=12	=12	=12
2r	1BB-	0.GG_	2.d\	2F/]
1GG	.	.	.	2.G/
.	.	.	4c\	.
.	1r	.	4B-i\	.
.	.	.	4A/	4A/
2GG/	.	.	2G/	2B-i/
2FF/	2AA/	.	2r	2A/
2GG/	[2BB-/	.	2G/	[2d/
=13	=13	=13	=13	=13
2.BB-/	4BB-/]	0.GG]	2F/	4d/]
.	4C/	.	.	4e/
.	4D\	.	2B-\	4f/
4AA/	4E\	.	.	4g/
2FF/	2F\	.	2A/	2a/
2BB-/	2D\	.	1B-i	2f/
1GG	2r	.	.	1g
.	2BB-i/	.	2G/	.
=14	=14	=14	=14	=14
1FF	2AA/	0BB-	1c	2.a/
.	2C/	.	.	.
.	.	.	.	4g/
2.BB-/	1D	.	1r	4f/
.	.	.	.	4e/
.	.	.	.	2d/
4AA/	.	.	.	.
4GG/	2D\	[1C	1Bn	2r
4FF/	.	.	.	.
2EE/	[2E\	.	.	[2g/
=15	=15	=15	=15	=15
2.C/	2E\]	1C]	1.c	4g/]
.	.	.	.	4f/
.	2E\	.	.	4e/
4BB-/	.	.	.	4d/
4AA/	1F	0D	.	2c/
4GG/	.	.	.	.
2FF/	.	.	2A/	2.f/
1DD	2F\	.	1d	.
.	.	.	.	4e/
.	2r	.	.	4d/
.	.	.	.	4c/
=16	=16	=16	=16	=16
1EE	2.E\	1C	2r	2B/
.	.	.	2B\	2.e/
.	4BB/	.	.	.
1r	1D	0BB-	0A	.
.	.	.	.	4d/
.	.	.	.	2d/
1FF	2r	.	.	2c/
.	2D\	.	.	2A/
=17	=17	=17	=17	=17
2EE/	2E\	0C	2.G/	2r
2GG/	1BB	.	.	1d
.	.	.	8F/L	.
.	.	.	8E/J	.
1r	.	.	2D/	.
.	2C/	.	2E/	2c/
1GG	1D	1C	2D/	2B/
.	.	.	[2d\	2G/
=18	=18	=18	=18	=18
2.D\	1r	0.BB-	4d\]	2A/
.	.	.	4c\	.
.	.	.	1A	2.a/
4E\	.	.	.	.
2F\	2.D\	.	.	.
.	.	.	.	4g/
1BB-	.	.	1B-i	4f/
.	4E\	.	.	4e/
.	4F\	.	.	2d/
.	4G\	.	.	.
2FF/	2A\	.	2c\	[2f/
=19	=19	=19	=19	=19
2.BB-/	2D\	1BB-	2F/	4f/]
.	.	.	.	4e/
.	2r	.	4r	2d/
4FF/	.	.	2c\	.
2AA/	1r	2AA/	.	2c/
.	.	.	2A/	.
2BB-/	.	2GG/	.	1d
.	.	.	4G/	.
1AA	2C/	1AA	1A	.
.	2AA/	.	.	2c#i/
=20	=20	=20	=20	=20
1DD	1AA	0GG	1F	0d
2r	1r	.	1r	.
2.DD/	.	.	.	.
.	1AA	1r	1r	1r
4EE/	.	.	.	.
[2FF/	.	.	.	.
=21	=21	=21	=21	=21
4FF/]	1C	0.r	0.r	0.r
4GG/	.	.	.	.
2AA/	.	.	.	.
2DD/	2D\	.	.	.
2AA/	2C/	.	.	.
2GG/	4E\	.	.	.
.	4D\	.	.	.
[2AA/	4C/	.	.	.
.	4BB/	.	.	.
=22	=22	=22	=22	=22
2AA/]	2AA/	0.r	2r	0.r
2FF/	1D	.	2D/	.
1EE	.	.	0G	.
.	2C/	.	.	.
1r	2BB/	.	.	.
.	2GG/	.	.	.
=23	=23	=23	=23	=23
0.r	2D\	0.r	2.A/	0.r
.	2C/	.	.	.
.	.	.	4G/	.
.	2.D\	.	4F/	.
.	.	.	4E/	.
.	.	.	1D	.
.	4C/	.	.	.
.	4BB/	.	.	.
.	4AA/	.	.	.
.	2GG/	.	[2G/	.
=24	=24	=24	=24	=24
0.r	2C/	0.r	2G/]	2r
.	2D\	.	2F/	2A/
.	1AA	.	2E/	1e
.	.	.	2C/	.
.	1r	.	2D/	1f
.	.	.	2A/	.
=25	=25	=25	=25	=25
0.r	1r	0.r	2B\	2g/
.	.	.	2c\	2.a/
.	1r	.	2.d\	.
.	.	.	.	4g/
.	.	.	.	4f/
.	.	.	4c\	4e/
.	1D	.	4B\	2d/
.	.	.	4A/	.
.	.	.	4G/	[2g/
.	.	.	4F/	.
=26	=26	=26	=26	=26
0.r	2C/	0.r	2E/	2g/]
.	2D\	.	1D	2.f/
.	1BB	.	.	.
.	.	.	.	4e/
.	.	.	1d	2d/
.	1AA	.	.	1e
.	.	.	2c#i\	.
=27	=27	=27	=27	=27
0DD	2r	0.GG	1.d	1d
.	2.A\	.	.	.
.	.	.	.	2r
.	4G\	.	.	.
.	4F\	.	1A	2.f/
.	4E\	.	.	.
2FF/	2D\	.	.	.
.	.	.	.	4e/
2GG/	2BB/	.	2B\	2d/
=28	=28	=28	=28	=28
2AA/	2AA/	[0.BB-	2c\	2c/
2.BB-/	2r	.	2F/	2.d/
.	4D\	.	2r	.
4AA/	4E\	.	.	4c/
1FF	4F\	.	1c	2A/
.	4G\	.	.	.
.	2.A\	.	.	2r
2FF/	.	.	2c\	[2a/
.	4G\	.	.	.
=29	=29	=29	=29	=29
2.DD/	4F\	0.BB-]	2.d\	4a/]
.	4E\	.	.	4g/
.	2.D\	.	.	4f/
4EE/	.	.	4c\	4e/
4FF/	.	.	1A	2d/
4GG/	4E\	.	.	.
2AA/	2F\	.	.	2c/
2BB-/	1D	.	2r	2d/
2D\	.	.	2A/	2f/
=30	=30	=30	=30	=30
0C	2r	[0.C	0c	0e
.	2E\	.	.	.
.	2G\	.	.	.
.	2C/	.	.	.
1GG	2BB/	.	2r	[1d
.	[2GG/	.	[2B\	.
=31	=31	=31	=31	=31
2r	2GG/]	0.C_	2B\]	1d]
2GG/	2D\	.	1B	.
2EE/	1E	.	.	1g
2CC/	.	.	1c	.
2r	1C	.	.	2.g/
[2C/	.	.	2G/	.
.	.	.	.	4f/
=32	=32	=32	=32	=32
2C/]	2r	0.C]	1c	1e
2C/	2E\	.	.	.
2.GG/	2.G\	.	1B	0d
4AA/	4F\	.	.	.
1BB-	1D	.	1r	.
=33	=33	=33	=33	=33
1AA	2E\	0.D	2E/	2.c/
.	1AA	.	2F/	.
.	.	.	.	4d/
2r	.	.	2C/	2e/
2DD/	2D\	.	2F/	1d
1AA	2C/	.	1E	.
.	2AA/	.	.	2c#i/
=34	=34	=34	=34	=34
0DD	2r	[0.D	0D	1d
.	2.F\	.	.	.
.	.	.	.	2r
.	4E\	.	.	.
.	2D\	.	.	2f/
2AA/	2C/	.	2E/	2e/
2DD/	2D\	.	2F/	2d/
=35	=35	=35	=35	=35
2AA/	2r	0.D_	2E/	2c/
2D\	2F\	.	2D/	2d/
2C/	2E\	.	2AA/	2r
2D\	2.A\	.	2r	2f/
2AA/	.	.	2.A/	2e/
.	4G\	.	.	.
2DD/	2F\	.	.	[2a/
.	.	.	4B\	.
=36	=36	=36	=36	=36
2AA/	2E\	0.D]	2c\	4a/]
.	.	.	.	4g/
2r	2D\	.	2d\	2f/
2AA/	2C/	.	2A/	2e/
2DD/	2D\	.	2r	2d/
2AA/	2r	.	2E/	2c/
2DD/	[2AA/	.	[2F/	2d/
=37	=37	=37	=37	=37
1FF	4AA/]	0.BB-	2F/]	2.A/
.	4BB/	.	.	.
.	4C/	.	2c\	.
.	4D\	.	.	4B/
2FF/	2AA/	.	1A	2c/
2DD/	2.F\	.	.	2d/
1FF	.	.	2r	2c/
.	4G\	.	.	.
.	[2A\	.	2c\	[2f/
=38	=38	=38	=38	=38
1r	2A\]	[0.GG	1d	4f/]
.	.	.	.	4g/
.	2F\	.	.	1a
1GG	1G	.	2r	.
.	.	.	2.d\	1g
1DD	1A	.	.	.
.	.	.	4c\	.
.	.	.	2A/	2f#i/
=39	=39	=39	=39	=39
0GG	0G	0.GG]	0B	1g
.	.	.	.	2r
.	.	.	.	1g
1DD	1r	.	1d	.
.	.	.	.	[2f/
=40	=40	=40	=40	=40
0.r	1D	0.r	2A/	2f/]
.	.	.	2d\	4e/
.	.	.	.	4d/
.	2AA/	.	2c\	2e/
.	1BB	.	1d	2d/
.	.	.	.	2r
.	2GG/	.	2B\	[2g/
=41	=41	=41	=41	=41
0.r	1D	0.r	1A	2g/]
.	.	.	.	2f/
.	1AA	.	2r	2e/
.	.	.	2A/	2c/
.	1r	.	2B-i\	2d/
.	.	.	2A/	[2f/
=42	=42	=42	=42	=42
0.r	0.r	0.r	2.B-i\	2f/]
.	.	.	.	2d/
.	.	.	8A/L	.
.	.	.	8G/J	.
.	.	.	4F/	2r
.	.	.	4E/	.
.	.	.	2D/	2.f/
.	.	.	2r	.
.	.	.	.	4e/
.	.	.	[2F/	4d/
.	.	.	.	4c/
=43	=43	=43	=43	=43
0.r	1r	0.r	4F/]	2d/
.	.	.	4G/	.
.	.	.	4A/	4c/
.	.	.	4G/	4B/
.	1r	.	4A/	2A/
.	.	.	4D/	.
.	.	.	1G	2G/
.	2.D\	.	.	1A
.	.	.	2F#i/	.
.	4C/	.	.	.
=44	=44	=44	=44	=44
1GG	2BB/	1r	1G	1G
.	2GG/	.	.	.
1FF	2.AA/	1r	1r	1r
.	4BB/	.	.	.
2EE/	4C/	1C	1r	1r
.	4BB/	.	.	.
2CC/	2E\	.	.	.
=45	=45	=45	=45	=45
1DD	2AA/	1BB-	0.r	0.r
.	2D\	.	.	.
2r	2C/	2AA/	.	.
1FF	2AA/	2FF/	.	.
.	2r	1GG	.	.
2GG/	2D\	.	.	.
=46	=46	=46	=46	=46
2AA/	2.F\	0.r	0.r	0.r
2.BB-/	.	.	.	.
.	4E\	.	.	.
.	4D\	.	.	.
4AA/	4C/	.	.	.
4GG/	1D	.	.	.
4FF/	.	.	.	.
1EE	.	.	.	.
.	2C#i/	.	.	.
=47	=47	=47	=47	=47
1DD	2.D\	0.BB-	2D/	2A/
.	.	.	2F/	1d
.	4C/	.	.	.
1.r	2BB-/	.	2D/	.
.	2AA/	.	[1.A	2c/
.	1D	.	.	2d/
[2D\	.	.	.	[2f/
=48	=48	=48	=48	=48
4D\]	1F	0.GG	2A/]	2f/]
4C/	.	.	.	.
1BB-	.	.	1B-i	1d
.	1r	.	.	.
2BB-/	.	.	1d	2f/
1GG	1BB-i	.	.	1g
.	.	.	4c\	.
.	.	.	4B-\	.
=49	=49	=49	=49	=49
1FF	1AA	0BB-	1c	1a
2DD/	2BB/	.	2d\	2r
2FF/	2AA/	.	2c\	1a
1GG	1D	[1GG	2B-i\	.
.	.	.	2G/	[2g/
=50	=50	=50	=50	=50
1DD	1r	1GG]	1A	2g/]
.	.	.	.	2f/
1CC	2GG/	0AA	2r	1g
.	1C	.	1G	.
1EE	.	.	.	2r
.	2GG/	.	2G/	[2g/
=51	=51	=51	=51	=51
1FF	2C/	[0.FF	1A	2g/]
.	2F\	.	.	1f
1CC	1G	.	1c	.
.	.	.	.	2e/
2FF/	2A\	.	2A/	2f/
2EE/	2G\	.	2B\	[2g/
=52	=52	=52	=52	=52
1CC	1E	0.FF]	1c	4g/]
.	.	.	.	4f/
.	.	.	.	4e/
.	.	.	.	4d/
1FF	1F	.	2r	2c/
.	.	.	2c\	1f
1CC	1G	.	1c	.
.	.	.	.	2e/
=53	=53	=53	=53	=53
1FF	2.F\	0.FF	2A/	2.f/
.	.	.	2.F/	.
.	4G\	.	.	4e/
2r	2A\	.	.	1c
.	.	.	4G/	.
2.FF/	2AA/	.	2.A/	.
.	1C	.	.	2f/
4GG/	.	.	4B\	.
[2AA/	.	.	[2c\	2e/
=54	=54	=54	=54	=54
2AA/]	2AA/	1BB-	2c\]	2c/
2BB-/	2D\	.	2F/	2d/
2AA/	1r	2BB-/	2.A/	2c/
2.D\	.	2BB-/	.	2A/
.	.	.	4G/	.
.	1r	1BB-	4F/	1r
4C/	.	.	4E/	.
2BB-/	.	.	2D/	.
=55	=55	=55	=55	=55
2AA/	2C/	1.BB-	2C/	0.r
2DD/	1AA	.	2D/	.
2FF/	.	.	1r	.
2EE/	2GG/	1C	.	.
1DD	1AA	.	1r	.
.	.	2BBni/	.	.
=56	=56	=56	=56	=56
0.r	2.GG/	1C	1D	2.B/
.	4AA/	.	.	4c/
.	2BB/	1C	2G/	2d/
.	2C/	.	2E/	1e
.	1D	1BB-	2.A/	.
.	.	.	.	2d/
.	.	.	4B\	.
=57	=57	=57	=57	=57
0.r	2AA/	1BB-	2c\	2c/
.	2D\	.	2A/	1f
.	1C	0C	1c	.
.	.	.	.	2e/
.	2BB/	.	1d	2d/
.	2GG/	.	.	[2g/
=58	=58	=58	=58	=58
1r	1D	1D	1.d	2g/]
.	.	.	.	1f
1r	2BB-i/	2C/	.	.
.	2C/	2AA/	2c\	1e
1DD	1D	1BB-	1A	.
.	.	.	.	2d/
=59	=59	=59	=59	=59
1AA	2C/	1AA	1A	2e/
.	2E\	.	.	2c/
2BB-/	2D\	2r	1r	2d/
2AA/	1A	2FF/	.	2e/
2FF/	.	2GG/	1r	2f/
2C/	2G\	2AA/	.	2e/
=60	=60	=60	=60	=60
2.D\	2F\	1BB-	1r	1a
.	2D\	.	.	.
4AA/	.	.	.	.
2.C/	2r	0AA	1G	2g/
.	2.C/	.	.	1e
4BB-/	.	.	.	.
2AA/	.	.	2c\	.
.	4D\	.	.	.
2EE/	2E\	.	2B\	2g/
=61	=61	=61	=61	=61
2FF/	2AA/	0.r	2A/	2f/
2GG/	2BB/	.	2G/	2e/
2FF/	2AA/	.	1.c	2.a/
1AA	2.C/	.	.	.
.	.	.	.	4g/
.	.	.	.	2e/
.	4D\	.	.	.
2EE/	2E\	.	2B\	2g/
=62	=62	=62	=62	=62
1r	2D\	0.r	4r	2f/
.	.	.	2d\	.
.	2AA/	.	.	2e/
.	.	.	4c\	.
2.DD/	4D\	.	2d\	2.f/
.	4E\	.	.	.
.	4F\	.	2.A/	.
4EE/	4G\	.	.	8e/L
.	.	.	.	8d/J
4FF/	2.A\	.	.	2.c/
4GG/	.	.	4B\	.
4AA/	.	.	4c\	.
4BB-/	4G\	.	4B\	4d/
=63	=63	=63	=63	=63
2.C/	1E	0.r	2.G/	4e/
.	.	.	.	4f/
.	.	.	.	2.g/
8BB-/L	.	.	4A/	.
8AA/J	.	.	.	.
1GG	1G	.	4B-i\	.
.	.	.	4c\	4a/
.	.	.	2d\	2b-i\
2FF/	2A\	.	2r	2a/
2GG/	2B-\	.	2d\	[2g/
=64	=64	=64	=64	=64
1C	1G	0.r	1c	4g/]
.	.	.	.	4f/
.	.	.	.	4e/
.	.	.	.	4d/
2AA/	2A\	.	2r	2c/
2BB-/	2D\	.	2G/	1d
1AA	1E	.	[1Al	.
.	.	.	.	2c#i/
=65	=65	=65	=65	=65
0.DDl	0.Dl	0.GGl	0.A]	0.dl
!!LO:LB:i:g=z
=66||	=66||	=66||	=66||	=66||
*>B	*>B	*>B	*>B	*>B
*clefF4	*clefF4	*clefF4	*clefGv2	*clefG2
*k[b-]	*k[]	*k[b-]	*k[]	*k[]
*M2/1	*M2/1	*M2/1	*M2/1	*M2/1
*met(C|)	*met(C|)	*met(C|)	*met(C|)	*met(C|)
!!section: Nostros ergo suscipe/Hic est sacerdos
!!!OMD: Nostros ergo suscipe/Hic est sacerdos
[0AA	0AA	0r	[0A	[0e
=67	=67	=67	=67	=67
1AA]	1C	0r	1A]	1e]
1AA	1C	.	1A	1e
=68	=68	=68	=68	=68
0DD	0D	0r	0A	0f
=69	=69	=69	=69	=69
*	*	*k[]	*	*
1.AA	0C	0r	0A	0e
2C/	.	.	.	.
=70	=70	=70	=70	=70
0BB-	1r	0r	0D	1f
.	1G	.	.	2e/
.	.	.	.	2d/
=71	=71	=71	=71	=71
0AA	0A	0r	1.E	0c#
.	.	.	2F/	.
=72	=72	=72	=72	=72
1GG	1B	[0D	1G	0r
1FF	1A	.	1A	.
=73	=73	=73	=73	=73
1GG	1G	0D]	1B	0r
1DD	1A	.	1A	.
=74	=74	=74	=74	=74
0EE	1r	0C	2c\	0r
.	.	.	4B\	.
.	.	.	4A/	.
.	1GG	.	1G	.
=75	=75	=75	=75	=75
0DD	0AA	0D	2F/	1r
.	.	.	2D/	.
.	.	.	1d	1f
=76	=76	=76	=76	=76
0r	0r	0F	1.c	0a
.	.	.	2d\	.
=77	=77	=77	=77	=77
0EE	[0E	0G	0B	1.g
.	.	.	.	2f/
=78	=78	=78	=78	=78
0AA	1E]	[0A	0c	0e
.	1C	.	.	.
=79	=79	=79	=79	=79
1DD	0F	0A]	0d	0d
1D	.	.	.	.
=80	=80	=80	=80	=80
1E	0r	0G	1B	0r
1C	.	.	1c	.
=81	=81	=81	=81	=81
0D	0r	0F	1.A	0r
.	.	.	2B\	.
=82	=82	=82	=82	=82
1C	2r	0G	0c	0e
.	1C	.	.	.
1CC	.	.	.	.
.	[2E\	.	.	.
=83	=83	=83	=83	=83
4DD/	2E\]	0r	0A	1f
4EE/	.	.	.	.
4FF/	1D	.	.	.
4GG/	.	.	.	.
1AA	.	.	.	1e
.	2C/	.	.	.
=84	=84	=84	=84	=84
0r	2BB/	0G	0r	1d
.	2GG/	.	.	.
.	2C/	.	.	1e
.	[2E\	.	.	.
=85	=85	=85	=85	=85
1r	2E\]	1F	0r	0r
.	2D\	.	.	.
1BB-	2F\	1D	.	.
.	4E\	.	.	.
.	4D\	.	.	.
=86	=86	=86	=86	=86
1AA	1C	1E	2r	1r
.	.	.	1A	.
1DD	1D	1D	.	1f
.	.	.	[2A/	.
=87	=87	=87	=87	=87
0r	1C	0r	2A/]	1e
.	.	.	2G/	.
.	1r	.	2F/	1d
.	.	.	4E/	.
.	.	.	4D/	.
=88	=88	=88	=88	=88
0AA	1r	0r	2C/	0e
.	.	.	1D	.
.	1A	.	.	.
.	.	.	2C/	.
=89	=89	=89	=89	=89
1GG	1B	0r	2r	1r
.	.	.	1d	.
1AA	[1A	.	.	1e
.	.	.	2c\	.
=90	=90	=90	=90	=90
1DD	1A]	0r	1d	1f
1r	2G\	.	1B	1e
.	2E\	.	.	.
=91	=91	=91	=91	=91
2r	1F	0r	2.A/	1d
2D\	.	.	.	.
.	.	.	4B\	.
1C	2E\	.	1c	1e
.	[2G\	.	.	.
=92	=92	=92	=92	=92
1GG	4G\]	0r	1B	2.g/
.	4F\	.	.	.
.	4E\	.	.	.
.	4D\	.	.	4f/
1FF	2F\	.	2r	4e/
.	.	.	.	4d/
.	2D\	.	[2A/	[2f/
=93	=93	=93	=93	=93
1DD	2.A\	0r	2A/]	2f/]
.	.	.	4G/	4e/
.	4B\	.	4F/	4d/
2AA/	2A\	.	1E	2c/
[2C/	[2G\	.	.	[2e/
=94	=94	=94	=94	=94
2C/]	2G\]	0r	2r	4e/]
.	.	.	.	4d/
2D\	2F\	.	1A	1d
1AA	1E	.	.	.
.	.	.	2A/	2c#i/
=95	=95	=95	=95	=95
0DD	0D	1r	0A	0d
.	.	1D	.	.
=96	=96	=96	=96	=96
1r	0r	0F	0r	0r
1AA	.	.	.	.
=97	=97	=97	=97	=97
1BB-	0r	1G	0r	0r
1AA	.	[1A	.	.
=98	=98	=98	=98	=98
1.D	0r	1A]	0r	0r
.	.	1F	.	.
2C/	.	.	.	.
=99	=99	=99	=99	=99
1.BB-	0r	1D	1.d	0r
.	.	[1G	.	.
2AA/	.	.	2c\	.
=100	=100	=100	=100	=100
1.GG	0r	2G/]	2B\	0r
.	.	2F/	2A/	.
.	.	2E/	1G	.
2FF/	.	2D/	.	.
=101	=101	=101	=101	=101
0EE	0r	1.C#i	2c\	0r
.	.	.	2B\	.
.	.	.	2A/	.
.	.	2BB/	2G/	.
=102	=102	=102	=102	=102
0DD	1AA	0D	0F	1r
.	1D	.	.	1A
=103	=103	=103	=103	=103
0AA	1C	0r	1E	0c
.	[1F	.	[1A	.
=104	=104	=104	=104	=104
0r	1F]	0r	1A]	1d
.	1G	.	1B	[1e
=105	=105	=105	=105	=105
0r	1E	0r	2G/	1e]
.	.	.	1c	.
.	[1A	.	.	1c
.	.	.	2A/	.
=106	=106	=106	=106	=106
1.D	2A\]	0r	4d\	1A
.	.	.	4c\	.
.	2G\	.	4B\	.
.	.	.	4A/	.
.	2F\	.	2B\	[1d
2C/	2E\	.	2A/	.
=107	=107	=107	=107	=107
2BB-/	1.D	0r	2G/	2d/]
2AA/	.	.	2A/	2c/
2GG/	.	.	2r	2B/
2AA/	2C/	.	[2E/	2A/
=108	=108	=108	=108	=108
1EE	2BB/	0r	2E/]	1.G#i
.	2AA/	.	2E/	.
1EE	1BB	.	1E	.
.	.	.	.	2F#i/
=109	=109	=109	=109	=109
2.AA/	2r	0r	2C/	1A
.	2.AA/	.	2F/	.
4BB-/	.	.	.	.
2C/	.	.	2E/	2r
.	4BB/	.	.	.
[2FF/	2C/	.	2F/	[2A/
=110	=110	=110	=110	=110
4FF/]	2D\	[0F	[0A	4A/]
4GG/	.	.	.	4B/
2AA/	2AA/	.	.	2c/
2DD/	2D\	.	.	2d/
[2FF/	2C/	.	.	2A/
=111	=111	=111	=111	=111
2FF/]	2D\	0F_	1A]	2d/
2FF/	2F\	.	.	2c/
1DD	2r	.	1r	2d/
.	2D\	.	.	2f/
=112	=112	=112	=112	=112
1.D	2.F\	0F_	2D/	2r
.	.	.	2.F/	2d/
.	4G\	.	.	.
.	1A	.	.	2.f/
.	.	.	4G/	.
2DD/	.	.	[2A/	.
.	.	.	.	4g/
=113	=113	=113	=113	=113
1FF	2r	0F]	4A/]	1a
.	.	.	4B\	.
.	2.F\	.	2c\	.
2DD/	.	.	2d\	2r
.	4G\	.	.	.
[2FF/	[2A\	.	2c\	2f/
=114	=114	=114	=114	=114
2FF/]	2A\]	[0D	2r	2a/
2GG/	1G	.	1d	2b-i\
1DD	.	.	.	1a
.	2F\	.	2d\	.
=115	=115	=115	=115	=115
1GG	1G	0D_	0d	2g/
.	.	.	.	1g
1DD	1A	.	.	.
.	.	.	.	2f#i/
=116	=116	=116	=116	=116
0GG	0G	0D_	0B	1g
.	.	.	.	1r
=117	=117	=117	=117	=117
0DD	0r	0D]	2r	1.f
.	.	.	1A	.
.	.	.	[2d\	4e/
.	.	.	.	4d/
=118	=118	=118	=118	=118
0r	1r	0r	2d\]	2f/
.	.	.	4c\	2g/
.	.	.	4B\	.
.	1A	.	1c	1e
=119	=119	=119	=119	=119
0r	2G\	0r	2r	0r
.	1F	.	1d	.
.	4E\	.	4c\	.
.	4D\	.	4B\	.
=120	=120	=120	=120	=120
1r	2F\	0r	2d\	0r
.	2G\	.	2e\	.
1AA	1E	.	1c	.
=121	=121	=121	=121	=121
1BB-	0r	[0F	0r	0r
2AA/	.	.	.	.
[2D\	.	.	.	.
=122	=122	=122	=122	=122
4D\]	0r	0F]	0r	0r
4C/	.	.	.	.
2BB-/	.	.	.	.
2AA/	.	.	.	.
[2BB-/	.	.	.	.
=123	=123	=123	=123	=123
4BB-/]	2r	[0D	0r	0r
4AA/	.	.	.	.
1GG	4D\	.	.	.
.	4E\	.	.	.
.	4F\	.	.	.
.	4G\	.	.	.
2FF/	2A\	.	.	.
=124	=124	=124	=124	=124
2GG/	2B-i\	0D]	0r	0r
2AA/	1A	.	.	.
1BB-	.	.	.	.
.	2G\	.	.	.
=125	=125	=125	=125	=125
[0AA	0A	[0E	1c	1r
.	.	.	1A	1c
=126	=126	=126	=126	=126
0AA]	1r	0E_	0c	1.e
.	1A	.	.	.
.	.	.	.	2f/
=127	=127	=127	=127	=127
0EE	2G\	0E_	0B	0g
.	2F\	.	.	.
.	2E\	.	.	.
.	2D\	.	.	.
=128	=128	=128	=128	=128
0AA	1C	0E]	1A	0a
.	1r	.	1c	.
=129	=129	=129	=129	=129
1EE	1G	[0C	1r	1r
1FF	1F	.	1A	1a
=130	=130	=130	=130	=130
0CC	2E\	0C]	0c	2g/
.	2F\	.	.	1f
.	1G	.	.	.
.	.	.	.	2e/
=131	=131	=131	=131	=131
1FF	2F\	[0C	2r	1f
.	2A\	.	2F/	.
[1CC	2G\	.	2E/	1r
.	[2F\	.	2F/	.
=132	=132	=132	=132	=132
1CC]	2F\]	0C]	1G	1r
.	2E\	.	.	.
1FF	1F	.	1F	1a
=133	=133	=133	=133	=133
1GG	0r	0r	2r	1g
.	.	.	1B-i	.
1D	.	.	.	1f
.	.	.	[2A/	.
=134	=134	=134	=134	=134
1C	0r	0r	2A/]	1e
.	.	.	1G	.
1C	.	.	.	1g
.	.	.	4F/	.
.	.	.	4E/	.
=135	=135	=135	=135	=135
2r	0r	0r	4D/	1.f
.	.	.	4E/	.
1D	.	.	4F/	.
.	.	.	4G/	.
.	.	.	4A/	.
.	.	.	4B\	.
4C/	.	.	4c\	4e/
4BB-/	.	.	4d\	4d/
=136	=136	=136	=136	=136
2AA/	1r	0r	2c\	2e/
2BB-/	.	.	1d	2d/
1AA	2r	.	.	1e
.	[2A\	.	2c#i\	.
=137	=137	=137	=137	=137
4DD/	2A\]	0r	1d	1d
4EE/	.	.	.	.
4FF/	4G\	.	.	.
4GG/	4F\	.	.	.
2AA/	2E\	.	1r	1r
[2DD/	[2F\	.	.	.
=138	=138	=138	=138	=138
4DD/]	2F\]	0r	0r	0r
4EE/	.	.	.	.
4FF/	4E\	.	.	.
4GG/	4D\	.	.	.
2AA/	2C/	.	.	.
4DD/	[2D\	.	.	.
4EE/	.	.	.	.
=139	=139	=139	=139	=139
4FF/	2D\]	0r	0r	0r
4GG/	.	.	.	.
2AA/	2C/	.	.	.
2FF/	2D\	.	.	.
[2GG/	4GG/	.	.	.
.	4AA/	.	.	.
=140	=140	=140	=140	=140
4GG/]	4BB/	0r	0r	0r
4AA/	4C/	.	.	.
4BB-/	4D\	.	.	.
4C/	4E\	.	.	.
4D\	4F\	.	.	.
4E\	4G\	.	.	.
[2F\	[2A\	.	.	.
=141	=141	=141	=141	=141
2F\]	2A\]	0r	0r	0r
1D	2F\	.	.	.
.	1E	.	.	.
2C#i/	.	.	.	.
=142	=142	=142	=142	=142
1D	1D	1F	0r	0r
1r	1r	1F	.	.
=143	=143	=143	=143	=143
1D	0r	0F	0r	0r
1AA	.	.	.	.
=144	=144	=144	=144	=144
0BB-	0r	[0F	1d	0r
.	.	.	1d	.
=145	=145	=145	=145	=145
[0FF	0r	0F]	0c	0r
=146	=146	=146	=146	=146
0FF]	1A	0F	0c	0r
.	1A	.	.	.
=147	=147	=147	=147	=147
0DD	0A	1F	0d	1f
.	.	1F	.	1f
=148	=148	=148	=148	=148
0FF	1A	[0F	0c	0a
.	1AA	.	.	.
=149	=149	=149	=149	=149
1DD	1D	0F]	1r	1.a
1FF	1C	.	1A	.
.	.	.	.	4g/
.	.	.	.	4f/
=150	=150	=150	=150	=150
0CC	0C	0G	0c	0e
=151	=151	=151	=151	=151
0EE	0C	0G	1.G	0e
.	.	.	2E/	.
=152	=152	=152	=152	=152
1DD	0D	1.F	1.A	1.f
1D	.	.	.	.
.	.	2G/	2B\	2f/
=153	=153	=153	=153	=153
2C/	1E	[0A	1c	1e
2AA/	.	.	.	.
1D	1F	.	1A	1d
=154	=154	=154	=154	=154
0AA	0E	0A_	0r	0c
=155	=155	=155	=155	=155
0DD	0D	0A_	0d	0f
=156	=156	=156	=156	=156
1.FF	1r	0A]	[0c	1.a
.	1AA	.	.	.
2GG/	.	.	.	2f/
=157	=157	=157	=157	=157
1AA	1C	[0A	1c]	1e
1DD	1D	.	1A	2f/
.	.	.	.	4e/
.	.	.	.	4d/
=158	=158	=158	=158	=158
2r	2AA/	0A_	2r	4c/
.	.	.	.	4d/
2.AA/	2C/	.	1E	4e/
.	.	.	.	4f/
.	2C/	.	.	2e/
4GG/	.	.	.	.
4FF/	[2D\	.	2A/	[2f/
4EE/	.	.	.	.
=159	=159	=159	=159	=159
1DD	4D\]	0A_	2d\	2f/]
.	4E\	.	.	.
.	4F\	.	4c\	4e/
.	4G\	.	4B\	4d/
1r	2A\	.	2A/	2c/
.	2AA/	.	[2c\	[2e/
=160	=160	=160	=160	=160
2r	2C/	0A]	2c\]	4e/]
.	.	.	.	4d/
2DD/	2D\	.	1A	1d
1AA	1E	.	.	.
.	.	.	2A/	2c#i/
=161	=161	=161	=161	=161
1DD	1D	1A	1A	1d
2r	1r	1A	1r	1r
[2FF/	.	.	.	.
=162	=162	=162	=162	=162
2FF/]	0r	2G/	0r	0r
1EE	.	2E/	.	.
.	.	1F	.	.
2DD/	.	.	.	.
=163	=163	=163	=163	=163
2.EE/	0r	1E	0r	0r
4FF/	.	.	.	.
2GG/	.	2r	.	.
2AA/	.	2C/	.	.
=164	=164	=164	=164	=164
2BB-/	0r	2D/	0r	0r
2C/	.	2E/	.	.
2D\	.	[1F	.	.
[2AA/	.	.	.	.
=165	=165	=165	=165	=165
2AA/]	0r	2F/]	0r	0r
1D	.	4E/	.	.
.	.	4D/	.	.
.	.	1E	.	.
2C#i/	.	.	.	.
=166	=166	=166	=166	=166
1D	0r	1D	3%4FV	3%4aV
1r	.	1r	.	.
.	.	.	3%2AZ	3%2aZ
=167	=167	=167	=167	=167
0r	0r	0r	3%2BV	3%2gV
.	.	.	3%4cZ	3%2e
.	.	.	.	3%2gZ
=168	=168	=168	=168	=168
0r	0r	0r	3%2dV	3%4fV
.	.	.	3%2d	.
.	.	.	3%2dZ	3%2fZ
=169	=169	=169	=169	=169
3%4AA	0r	0r	3%4cV	3%4eV
3%2AA	.	.	3%2rZ	3%2rZ
=170	=170	=170	=170	=170
3%2C	3%4A	0r	0r	0r
3%2D	.	.	.	.
3%2FZ	3%2AZ	.	.	.
=171	=171	=171	=171	=171
3%4EV	3%2GV	0r	0r	0r
.	3%2E	.	.	.
3%2EZ	3%2GZ	.	.	.
=172	=172	=172	=172	=172
0D	3%4FV	0r	3%4AV	0r
.	3%2FZ	.	3%2AZ	.
=173	=173	=173	=173	=173
0r	3%4EV	0r	3%4BV	3%4gV
.	3%2rZ	.	3%2BZ	3%2gZ
=174	=174	=174	=174	=174
0r	0r	0r	3%2dV	3%2fV
.	.	.	3%2d	3%2d
.	.	.	[3%2dZ	3%2fZ
=175	=175	=175	=175	=175
0r	3%4AV	0r	3%2d]V	3%2eV
.	.	.	3%4c#iZ	3%4eZ
.	3%2AZ	.	.	.
=176	=176	=176	=176	=176
3%4BB-V	3%4FV	0r	1d	1d
.	.	.	1r	1r
3%2BB-Z	3%2GZ	.	.	.
=177	=177	=177	=177	=177
3%2AAV	3%2FV	0r	0r	0r
3%2GGZ	3%4EZ	.	.	.
3%2AA	.	.	.	.
=178	=178	=178	=178	=178
3%2FFV	3%4DV	0r	3%2rV	0r
3%4EEZ	.	.	3%2r	.
.	3%2C#iZ	.	3%2EZ	.
=179	=179	=179	=179	=179
3%2DDV	3%4DV	0r	3%2FV	3%2AV
3%2GG	.	.	3%2D	3%2B
3%2FFZ	3%2AAZ	.	3%2FZ	3%2AZ
=180	=180	=180	=180	=180
3%2GGV	3%2BBV	0r	4D/	3%2.dV
.	.	.	4E/	.
.	.	.	4F/	.
3%4DDZ	3%2AA	.	.	.
.	.	.	4G/	.
.	.	.	4A/	3e/
.	.	.	4B\	.
.	3%2DZ	.	.	3%2fZ
.	.	.	4c\	.
.	.	.	4B\	.
=181	=181	=181	=181	=181
0r	3%2CV	0r	1A	3%2eV
.	3F\Z	.	.	3d/Z
.	3E\V	.	1r	3c/V
.	3D\	.	.	3B/
.	3C/Z	.	.	3A/Z
=182	=182	=182	=182	=182
3%2EEV	3%2EV	0r	0G	3%2cV
3%4GGZ	3%4DZ	.	.	3%2.B
.	.	.	.	3A/Z
=183	=183	=183	=183	=183
3%2AAV	3%2CV	0r	0E	3%4AV
3%4EEZ	3%4BBZ	.	.	.
.	.	.	.	3%2G#iZ
=184	=184	=184	=184	=184
0AA	1AA	[0C	1E	0A
.	1r	.	1r	.
=185	=185	=185	=185	=185
1FF	1AA	0C]	1F	1r
1EE	1GG	.	1G	1e
=186	=186	=186	=186	=186
1.DD	1FF	[0D	0A	3%4fV
.	[1AA	.	.	.
.	.	.	.	3%2gZ
2EE/	.	.	.	.
=187	=187	=187	=187	=187
1FF	1AA]	0D_	0F	0a
1DD	1D	.	.	.
=188	=188	=188	=188	=188
0GG	1r	0D_	0B-i	1g
.	1GG	.	.	1g
=189	=189	=189	=189	=189
0DD	1AA	0D]	1A	1.f
.	1D	.	1A	.
.	.	.	.	4e/
.	.	.	.	4d/
=190	=190	=190	=190	=190
1r	1AA	[0F	2A/	2.c/
.	.	.	1c	.
.	.	.	.	4B/
1FF	1C	.	.	1A
.	.	.	2c\	.
=191	=191	=191	=191	=191
1BB-	1D	0F_	1F	1r
1AA	1C	.	1c	1A
=192	=192	=192	=192	=192
1r	1BB-	0F_	0d	1B-
[1DD	1D	.	.	1A
=193	=193	=193	=193	=193
1DD]	1AA	0F]	1D	2d/
.	.	.	.	4c/
.	.	.	.	4B/
1DD	1D	.	1F	1A
=194	=194	=194	=194	=194
1EE	1BB	[0G	1E	2r
.	.	.	.	2.G/
1GG	1BB	.	1D	.
.	.	.	.	4A/
.	.	.	.	4B/
.	.	.	.	4c/
=195	=195	=195	=195	=195
1r	2GG/	0G]	2r	2d/
.	2C/	.	2G/	2e/
[1GG	2D\	.	[1B-i	2d/
.	2E\	.	.	[2g/
=196	=196	=196	=196	=196
2GG/]	2D\	0G	2B-\]	2g/]
2AA/	2C/	.	2c\	4f/
.	.	.	.	4e/
2BB-/	1G	.	1B-i	1d
2GG/	.	.	.	.
=197	=197	=197	=197	=197
*M3/3%2	*M3/3%2	*	*M3/3%2	*M3/3%2
*met(3)	*met(3)	*	*met(3)	*met(3)
3%4C	3%4E	0r	3%4G	3%4e
3%2FF	3%2D	.	3%2A	3%2f
=198	=198	=198	=198	=198
3%4EE	3%4E	0r	[0B	3%4g
3%2EE	[3%2G	.	.	3%2e
=199	=199	=199	=199	=199
3%4GG	3%2G]	0r	3%2B]	3%4d
.	3%4D	.	3%2B	.
3%2FF	.	.	3%2A	3%2f
=200	=200	=200	=200	=200
*	*	*M3/3%2	*	*
*	*	*met(3)	*	*
3%2EE	3%2E	3%2r	3%2B	3%2g
3%4DD	3%4F	3%2r	3%4d	3%4a
.	.	3%2F	.	.
=201	=201	=201	=201	=201
3%4GG	3%2D	3%4G	3%4B	3%4g
.	3%2r	.	.	.
3%2AA	3%2r	3%2E	3%2A	3%2c
=202	=202	=202	=202	=202
3%2BB-	3%4F	3%4D	3%2.d	3%2d
3%4D	.	.	.	3%4f
.	.	.	3c\	.
.	3%2D	3%2F	3A/	.
.	.	.	3B\	.
=203	=203	=203	=203	=203
0C	3E\	3%4G	0c	[0e
.	3D\	.	.	.
.	3C/	.	.	.
.	3BB/	.	.	.
.	3%2AA	3%2A	.	.
=204	=204	=204	=204	=204
3%4CC	3%2.C	3%4G	0r	3%2e]
.	.	.	.	3%4g
.	3BB/	.	.	.
3%2EE	3%2GG	3%2C	.	.
=205	=205	=205	=205	=205
3%4DD	3%4AA	3%4D	3%2.d	3%2.f
.	.	.	3c\	3e/
3%2r	3%2A	3%2F	3%2A	3%2c
=206	=206	=206	=206	=206
3%2GG	3%2G	3%4D	3%2B	3%2d
3%2FF	3%4A	.	3%4d	3%2.f
3%2DD	.	3%2F	.	.
.	.	.	.	3e/
=207	=207	=207	=207	=207
3%2AA	3%2AA	3%4E	3%2r	3%2c
3%2r	3%2C	.	3%2c	3%2e
3%2r	3%2D	3%2F	3%2A	3%2d
=208	=208	=208	=208	=208
0r	3%4E	3%4C	3%4c	3%2.g
.	.	.	.	3f/
.	3%2A	3%2F	3%2A	3%2d
=209	=209	=209	=209	=209
3%4AA	3%2AA	3%2E	3%4c	3%4a
.	3%2C	3%2F	.	.
3%2BB-	3%2GG	3%2D	3%2d	[3%2g
=210	=210	=210	=210	=210
3%2GG	3%2BB	3%2E	3%2B	3%2g]
3%2AA	3%4AA	3%2C	3%2c	3%2e
3%2DD	.	[3%2D	3%2A	3%2f
=211	=211	=211	=211	=211
3%2BB-	3%2r	3%2D]	3%2G	3%2.d
3%4AA	3%2C	3%4E	3%4A	.
.	.	.	.	3c#i/
.	3%2AA	.	.	3c#i/
.	.	.	.	3B/
=212	=212	=212	=212	=212
[0DDl	[0AAl	[0Dl	0F	[0dl
=213	=213	=213	=213	=213
0DD]	0AA]	0D]	0Al	0d]
==	==	==	==	==
*-	*-	*-	*-	*-
!!!RDF**kern: l=long note in original notation
!!!RDF**kern: i=editorial accidental
!!!RDF**kern: V=start of tuplet marker
!!!RDF**kern: Z=end of tuplet marker
!!!ENC:	Jesse Rodin 8/6/2013
!!!END:	2013/08/07/
!!!EED:	Jesse Rodin
!!!EEV:	2013/08/07/
!!attribution-level@Rue: 5 (attributed)
!!!ONB:	Translated from MusicXML and edited on 2013/08/07/ by Craig Sapp
!!muse2ps: C^@{COA}?^i2I150v85,85,85,85,130Q16
